X:061 
T:Fred Finn's (reel) 
B:CRE3.199 (RÃÂÃÂÃÂÃÂ­l Frederic UÃÂÃÂÃÂÃÂ­ Fhinn)
F:file ID: cre.3/061fred_f
R:reel
L:1/8
Q:180
M:C
K:D
A3F A2de|f2ec dBAc|BEE2 G3B|AFF2 dFF2|
ABAF ABde|f2ec dBB2|BAFB A2de|1 faeg fedB:|2 faeg fdd||
|:e|(3fed ad bdad|fdad gee2|fbba b2ba|fbba fae2|
(3fed ad bdad|fdad fedc|BAFB A2de|(3fga eg fdd:|

%%%

